svg/24/briefcase--filled.svg

<svg width="24" height="24" viewBox="0 0 24 24" fill="currentColor" xmlns="http://www.w3.org/2000/svg"><path fill-rule="evenodd" clip-rule="evenodd" d="M8 7V5C8 3.89543 8.89543 3 10 3H14C15.1046 3 16 3.89543 16 5V7H20C21.1046 7 22 7.89543 22 9V11C22 12.1653 21.5017 13.2142 20.7066 13.9453C19.9943 14.6002 19.0438 15 18 15H12.75V14.25C12.75 13.8358 12.4142 13.5 12 13.5C11.5858 13.5 11.25 13.8358 11.25 14.25V15H6C4.95616 15 4.00571 14.6002 3.29344 13.9453C2.4983 13.2142 2 12.1653 2 11V9C2 7.89543 2.89543 7 4 7H8ZM10 4.5H14C14.2761 4.5 14.5 4.72386 14.5 5V7H9.5V5C9.5 4.72386 9.72386 4.5 10 4.5Z"/><path d="M3 15.6105V19C3 20.1046 3.89543 21 5 21H19C20.1046 21 21 20.1046 21 19V15.6105C20.1372 16.1731 19.1068 16.5 18 16.5H12.75V17.25C12.75 17.6642 12.4142 18 12 18C11.5858 18 11.25 17.6642 11.25 17.25V16.5H6C4.89321 16.5 3.86278 16.1731 3 15.6105Z"/></svg>

<svg xmlns="http://www.w3.org/2000/svg" width="24" height="24" fill="currentColor" viewBox="0 0 24 24">
  <path fill-rule="evenodd" d="M8 7V5a2 2 0 0 1 2-2h4a2 2 0 0 1 2 2v2h4a2 2 0 0 1 2 2v2a3.99 3.99 0 0 1-1.293 2.945A3.986 3.986 0 0 1 18 15h-5.25v-.75a.75.75 0 0 0-1.5 0V15H6c-1.044 0-1.994-.4-2.707-1.055A3.99 3.99 0 0 1 2 11V9a2 2 0 0 1 2-2h4Zm2-2.5h4a.5.5 0 0 1 .5.5v2h-5V5a.5.5 0 0 1 .5-.5Z" clip-rule="evenodd"/>
  <path d="M3 15.61V19a2 2 0 0 0 2 2h14a2 2 0 0 0 2-2v-3.39a5.474 5.474 0 0 1-3 .89h-5.25v.75a.75.75 0 0 1-1.5 0v-.75H6a5.474 5.474 0 0 1-3-.89Z"/>
</svg>
